X:2563
T:Cantar de Ronda (CT 205)
R:Ronda
C:Tradicional
S:Música Tradicional Asturiana, (C) Tello & Tito. Asturies, 2001.
S:http://pagina.de/MusTradAst <telloytito@asturies.org>
N:Canción de Ronda, transcrita en Sama de Llangréu.
O:Sama (Llangréu)
A:Asturies
Z:Cancioneru de Torner 205
M:9/8
L:1/8
Q:3/8=63
W:Pasé la puente de hierro,
W:de hierro,
W:paséla mui de mañana,
W:mañana;
W:encontré un anillo de oro,
W:de oro,
W:con una cinta encarnada,
W:encarnada.
K:Gm
B
|d3-d2 c Bdc|(A2-A/B/8A/8G/8^F/8 G) G>G c2 (B/c/8B/8A/8G/8|A) A2-A3-A z B|
d3-d2 c Bdc|(A2-A/B/8A/8G/8^F/8 G) G>G c2 (B/c/8B/8A/8G/8|A/B/A/B/8A/8G/8^F/8G) G3-G z :||
 


